X: 1
T: Jesus Bids Us Shine
C: words: Susan B. Warner, 1868
C: music: W.E.M. Hackleman, ca. 1911
M: 4/4
L: 1/8
K: G
[| BD DG B2 Bc | B2 A2 A4 | AD DF A2 B2 | AA GF G4 |
   BD DG B2 d2 | d2 c2 c4 | BD GA B d2 c | B2 A2 G4 |]
